ui/StatusQ/src/assets/img/icons/sign.svg

<svg fill="none" height="24" viewBox="0 0 24 24" width="24" xmlns="http://www.w3.org/2000/svg"><path d="m9.94122 13.5754c-1.12999-.559-2.4491-1.5694-3.30838-2.769-1.35086-1.88577-1.74728-4.19106.12368-5.57882 1.40204-1.03996 3.74638.25826 4.63788 2.27086 1.1879 2.68166.9895 6.81736-1.2213 10.31296-1.11146 1.7574-2.82428 1.5803-3.41658.5703-.81767-1.3943.0298-4.4445 3.91998-6.3895 3.3955-1.6978 4.3463-.8376 4.15.0836-.0693.3252-.8349 1.6542.1855 1.6542.8795 0 1.6363-1.0887 2.3499-1.6542.9091-.7204 1.8551-.943 1.7404.4131-.0428.5069.1766 1.5967 1.4134.9783" stroke="#fff" stroke-linecap="round" stroke-width="1.5"/></svg>

<svg width="24" height="24" viewBox="0 0 24 24" fill="none" xmlns="http://www.w3.org/2000/svg">
<path d="M9.94122 13.5754C8.81123 13.0164 7.49212 12.006 6.63284 10.8064C5.28198 8.92063 4.88556 6.61534 6.75652 5.22758C8.15856 4.18762 10.5029 5.48584 11.3944 7.49844C12.5823 10.1801 12.3839 14.3158 10.1731 17.8114C9.06164 19.5688 7.34882 19.3917 6.75652 18.3817C5.93885 16.9874 6.78632 13.9372 10.6765 11.9922C14.072 10.2944 15.0228 11.1546 14.8265 12.0758C14.7572 12.401 13.9916 13.73 15.012 13.73C15.8915 13.73 16.6483 12.6413 17.3619 12.0758C18.271 11.3554 19.217 11.1328 19.1023 12.4889C19.0595 12.9958 19.2789 14.0856 20.5157 13.4672" stroke="white" stroke-width="1.5" stroke-linecap="round"/>
</svg>
